resources/haticons/SVG/wink.svg

<!-- Generated by IcoMoon.io -->
<svg version="1.1" xmlns="http://www.w3.org/2000/svg" width="24" height="24" viewBox="0 0 24 24">
<title>wink</title>
<path d="M12 24c6.627 0 12-5.373 12-12s-5.373-12-12-12-12 5.373-12 12 5.373 12 12 12zM12 2.25c5.385 0 9.75 4.365 9.75 9.75s-4.365 9.75-9.75 9.75-9.75-4.365-9.75-9.75 4.365-9.75 9.75-9.75zM12.72 16.665c3.287-0.649 5.839-2.146 6.761-4.139-0.508 3.936-3.786 6.974-7.754 6.974-2.795 0-5.247-1.507-6.63-3.772 1.65 1.29 4.559 1.542 7.624 0.937zM15 8.25c0-1.243 0.672-2.25 1.5-2.25s1.5 1.007 1.5 2.25c0 1.243-0.672 2.25-1.5 2.25s-1.5-1.007-1.5-2.25zM8.25 8.707c-0.98 0-1.813 0.367-2.121 0.879-0.083-0.137-0.129-0.754-0.129-0.908 0-0.728 1.007-1.318 2.25-1.318s2.25 0.59 2.25 1.318c0 0.154-0.046 0.771-0.129 0.908-0.309-0.512-1.142-0.879-2.121-0.879z"></path>
</svg>

<svg xmlns="http://www.w3.org/2000/svg" width="24" height="24"><path d="M12 24c6.627 0 12-5.373 12-12S18.627 0 12 0 0 5.373 0 12s5.373 12 12 12zm0-21.75c5.385 0 9.75 4.365 9.75 9.75s-4.365 9.75-9.75 9.75S2.25 17.385 2.25 12 6.615 2.25 12 2.25zm.72 14.415c3.287-.649 5.839-2.146 6.761-4.139-.508 3.936-3.786 6.974-7.754 6.974-2.795 0-5.247-1.507-6.63-3.772 1.65 1.29 4.559 1.542 7.624.937zM15 8.25C15 7.007 15.672 6 16.5 6S18 7.007 18 8.25s-.672 2.25-1.5 2.25S15 9.493 15 8.25zm-6.75.457c-.98 0-1.813.367-2.121.879C6.046 9.449 6 8.832 6 8.678 6 7.95 7.007 7.36 8.25 7.36s2.25.59 2.25 1.318c0 .154-.046.771-.129.908-.309-.512-1.142-.879-2.121-.879z"/></svg>
